images/3234539.svg

<?xml version="1.0" encoding="UTF-8"?>
<svg xmlns="http://www.w3.org/2000/svg" xmlns:xlink="http://www.w3.org/1999/xlink" width="300pt" height="300pt" viewBox="0 0 300 300" version="1.1">
<defs>
<g>
<symbol overflow="visible" id="glyph0-0">
<path style="stroke:none;" d="M 0.546875 1.9375 L 0.546875 -7.75 L 6.046875 -7.75 L 6.046875 1.9375 Z M 1.171875 1.328125 L 5.4375 1.328125 L 5.4375 -7.140625 L 1.171875 -7.140625 Z M 1.171875 1.328125 "/>
</symbol>
<symbol overflow="visible" id="glyph0-1">
<path style="stroke:none;" d="M 1.078125 -8.015625 L 2.546875 -8.015625 L 6.09375 -1.3125 L 6.09375 -8.015625 L 7.15625 -8.015625 L 7.15625 0 L 5.6875 0 L 2.125 -6.703125 L 2.125 0 L 1.078125 0 Z M 1.078125 -8.015625 "/>
</symbol>
<symbol overflow="visible" id="glyph0-2">
<path style="stroke:none;" d="M 4.328125 -7.28125 C 3.546875 -7.28125 2.921875 -6.984375 2.453125 -6.390625 C 1.992188 -5.804688 1.765625 -5.007812 1.765625 -4 C 1.765625 -2.988281 1.992188 -2.1875 2.453125 -1.59375 C 2.921875 -1.007812 3.546875 -0.71875 4.328125 -0.71875 C 5.117188 -0.71875 5.742188 -1.007812 6.203125 -1.59375 C 6.660156 -2.1875 6.890625 -2.988281 6.890625 -4 C 6.890625 -5.007812 6.660156 -5.804688 6.203125 -6.390625 C 5.742188 -6.984375 5.117188 -7.28125 4.328125 -7.28125 Z M 4.328125 -8.171875 C 5.453125 -8.171875 6.351562 -7.789062 7.03125 -7.03125 C 7.707031 -6.28125 8.046875 -5.269531 8.046875 -4 C 8.046875 -2.738281 7.707031 -1.726562 7.03125 -0.96875 C 6.351562 -0.21875 5.453125 0.15625 4.328125 0.15625 C 3.203125 0.15625 2.300781 -0.21875 1.625 -0.96875 C 0.957031 -1.71875 0.625 -2.726562 0.625 -4 C 0.625 -5.269531 0.957031 -6.28125 1.625 -7.03125 C 2.300781 -7.789062 3.203125 -8.171875 4.328125 -8.171875 Z M 4.328125 -8.171875 "/>
</symbol>
<symbol overflow="visible" id="glyph0-3">
<path style="stroke:none;" d="M 1.078125 -8.015625 L 5.6875 -8.015625 L 5.6875 -7.109375 L 2.171875 -7.109375 L 2.171875 -4.75 L 5.34375 -4.75 L 5.34375 -3.828125 L 2.171875 -3.828125 L 2.171875 0 L 1.078125 0 Z M 1.078125 -8.015625 "/>
</symbol>
</g>
</defs>
<g id="surface33933">
<rect x="0" y="0" width="300" height="300" style="fill:rgb(100%,100%,100%);fill-opacity:1;stroke:none;"/>
<path style="fill:none;stroke-width:1.2;stroke-linecap:butt;stroke-linejoin:miter;stroke:rgb(0%,0%,0%);stroke-opacity:1;stroke-miterlimit:10;" d="M 174.007812 205.613281 L 147.050781 209.777344 "/>
<path style="fill:none;stroke-width:1.2;stroke-linecap:butt;stroke-linejoin:miter;stroke:rgb(0%,0%,0%);stroke-opacity:1;stroke-miterlimit:10;" d="M 183.882812 180.1875 L 174.007812 205.613281 "/>
<path style="fill:none;stroke-width:1;stroke-linecap:butt;stroke-linejoin:miter;stroke:rgb(0%,0%,0%);stroke-opacity:1;stroke-miterlimit:10;" d="M 129.96875 188.511719 L 129.96875 188.511719 M 131.414062 191.140625 L 132.226562 190.488281 M 132.855469 193.773438 L 134.480469 192.464844 M 134.300781 196.402344 L 136.738281 194.441406 M 135.746094 199.03125 L 138.996094 196.417969 M 137.1875 201.660156 L 141.253906 198.394531 M 138.632812 204.289062 L 143.507812 200.371094 M 140.074219 206.917969 L 145.765625 202.347656 M 141.519531 209.550781 L 148.023438 204.324219 M 142.964844 212.179688 L 150.28125 206.300781 M 143.300781 212.789062 L 150.804688 206.761719 "/>
<path style="fill:none;stroke-width:1.2;stroke-linecap:butt;stroke-linejoin:miter;stroke:rgb(0%,0%,0%);stroke-opacity:1;stroke-miterlimit:10;" d="M 129.96875 188.511719 L 117.492188 212.765625 "/>
<path style="fill:none;stroke-width:1.2;stroke-linecap:butt;stroke-linejoin:miter;stroke:rgb(0%,0%,0%);stroke-opacity:1;stroke-miterlimit:10;" d="M 129.96875 188.511719 L 139.839844 163.085938 "/>
<path style="fill:none;stroke-width:1.2;stroke-linecap:butt;stroke-linejoin:miter;stroke:rgb(0%,0%,0%);stroke-opacity:1;stroke-miterlimit:10;" d="M 110.753906 169.152344 L 129.96875 188.511719 "/>
<path style="fill:none;stroke-width:1.2;stroke-linecap:butt;stroke-linejoin:miter;stroke:rgb(0%,0%,0%);stroke-opacity:1;stroke-miterlimit:10;" d="M 117.492188 212.765625 L 90.570312 208.398438 "/>
<path style="fill:none;stroke-width:1.2;stroke-linecap:butt;stroke-linejoin:miter;stroke:rgb(0%,0%,0%);stroke-opacity:1;stroke-miterlimit:10;" d="M 90.570312 208.398438 L 88.488281 194.917969 "/>
<path style="fill:none;stroke-width:1.2;stroke-linecap:butt;stroke-linejoin:miter;stroke:rgb(0%,0%,100%);stroke-opacity:1;stroke-miterlimit:10;" d="M 88.488281 194.917969 L 86.40625 181.441406 "/>
<path style="fill:none;stroke-width:1.2;stroke-linecap:butt;stroke-linejoin:miter;stroke:rgb(0%,0%,100%);stroke-opacity:1;stroke-miterlimit:10;" d="M 86.40625 181.441406 L 98.582031 175.296875 "/>
<path style="fill:none;stroke-width:1.2;stroke-linecap:butt;stroke-linejoin:miter;stroke:rgb(0%,0%,0%);stroke-opacity:1;stroke-miterlimit:10;" d="M 98.582031 175.296875 L 110.753906 169.152344 "/>
<path style="fill:none;stroke-width:1.2;stroke-linecap:butt;stroke-linejoin:miter;stroke:rgb(0%,0%,100%);stroke-opacity:1;stroke-miterlimit:10;" d="M 86.40625 181.441406 L 74.277344 175.203125 "/>
<path style="fill:none;stroke-width:1.2;stroke-linecap:butt;stroke-linejoin:miter;stroke:rgb(0%,0%,0%);stroke-opacity:1;stroke-miterlimit:10;" d="M 74.277344 175.203125 L 62.148438 168.964844 "/>
<path style=" stroke:none;fill-rule:nonzero;fill:rgb(100%,100%,100%);fill-opacity:1;" d="M 82.40625 174.941406 L 90.40625 174.941406 L 90.40625 187.941406 L 82.40625 187.941406 Z M 82.40625 174.941406 "/>
<g style="fill:rgb(0%,0%,100%);fill-opacity:1;">
  <use xlink:href="#glyph0-1" x="82.40625" y="184.842773"/>
</g>
<path style="fill:none;stroke-width:1.2;stroke-linecap:butt;stroke-linejoin:miter;stroke:rgb(0%,0%,0%);stroke-opacity:1;stroke-miterlimit:10;" d="M 62.148438 168.964844 L 60.828125 141.71875 "/>
<path style="fill:none;stroke-width:1.2;stroke-linecap:butt;stroke-linejoin:miter;stroke:rgb(0%,0%,0%);stroke-opacity:1;stroke-miterlimit:10;" d="M 60.828125 141.71875 L 83.761719 126.953125 "/>
<path style="fill:none;stroke-width:1.2;stroke-linecap:butt;stroke-linejoin:miter;stroke:rgb(0%,0%,0%);stroke-opacity:1;stroke-miterlimit:10;" d="M 59.644531 134.847656 L 77.992188 123.035156 "/>
<path style="fill:none;stroke-width:1.2;stroke-linecap:butt;stroke-linejoin:miter;stroke:rgb(0%,0%,0%);stroke-opacity:1;stroke-miterlimit:10;" d="M 36.574219 129.242188 L 60.828125 141.71875 "/>
<path style="fill:none;stroke-width:1.2;stroke-linecap:butt;stroke-linejoin:miter;stroke:rgb(0%,0%,0%);stroke-opacity:1;stroke-miterlimit:10;" d="M 83.761719 126.953125 L 82.4375 99.710938 "/>
<path style="fill:none;stroke-width:1.2;stroke-linecap:butt;stroke-linejoin:miter;stroke:rgb(0%,0%,0%);stroke-opacity:1;stroke-miterlimit:10;" d="M 82.4375 99.710938 L 58.183594 87.234375 "/>
<path style="fill:none;stroke-width:1.2;stroke-linecap:butt;stroke-linejoin:miter;stroke:rgb(0%,0%,0%);stroke-opacity:1;stroke-miterlimit:10;" d="M 77.078125 104.167969 L 57.671875 94.1875 "/>
<path style="fill:none;stroke-width:1.2;stroke-linecap:butt;stroke-linejoin:miter;stroke:rgb(0%,0%,0%);stroke-opacity:1;stroke-miterlimit:10;" d="M 58.183594 87.234375 L 35.25 102 "/>
<path style="fill:none;stroke-width:1.2;stroke-linecap:butt;stroke-linejoin:miter;stroke:rgb(0%,0%,0%);stroke-opacity:1;stroke-miterlimit:10;" d="M 35.25 102 L 36.574219 129.242188 "/>
<path style="fill:none;stroke-width:1.2;stroke-linecap:butt;stroke-linejoin:miter;stroke:rgb(0%,0%,0%);stroke-opacity:1;stroke-miterlimit:10;" d="M 41.792969 104.414062 L 42.851562 126.207031 "/>
<path style="fill:none;stroke-width:1.2;stroke-linecap:butt;stroke-linejoin:miter;stroke:rgb(0%,0%,0%);stroke-opacity:1;stroke-miterlimit:10;" d="M 139.839844 163.085938 L 153.320312 161.003906 "/>
<path style="fill:none;stroke-width:1.2;stroke-linecap:butt;stroke-linejoin:miter;stroke:rgb(0%,0%,100%);stroke-opacity:1;stroke-miterlimit:10;" d="M 153.320312 161.003906 L 166.796875 158.921875 "/>
<path style="fill:none;stroke-width:1.2;stroke-linecap:butt;stroke-linejoin:miter;stroke:rgb(0%,0%,100%);stroke-opacity:1;stroke-miterlimit:10;" d="M 166.796875 158.921875 L 175.339844 169.554688 "/>
<path style="fill:none;stroke-width:1.2;stroke-linecap:butt;stroke-linejoin:miter;stroke:rgb(0%,0%,0%);stroke-opacity:1;stroke-miterlimit:10;" d="M 175.339844 169.554688 L 183.882812 180.1875 "/>
<path style="fill:none;stroke-width:1.2;stroke-linecap:butt;stroke-linejoin:miter;stroke:rgb(0%,0%,100%);stroke-opacity:1;stroke-miterlimit:10;" d="M 166.796875 158.921875 L 171.734375 146.210938 "/>
<path style="fill:none;stroke-width:1.2;stroke-linecap:butt;stroke-linejoin:miter;stroke:rgb(0%,0%,0%);stroke-opacity:1;stroke-miterlimit:10;" d="M 171.734375 146.210938 L 176.671875 133.496094 "/>
<path style=" stroke:none;fill-rule:nonzero;fill:rgb(100%,100%,100%);fill-opacity:1;" d="M 162.796875 152.421875 L 170.796875 152.421875 L 170.796875 165.421875 L 162.796875 165.421875 Z M 162.796875 152.421875 "/>
<g style="fill:rgb(0%,0%,100%);fill-opacity:1;">
  <use xlink:href="#glyph0-1" x="162.796875" y="162.323242"/>
</g>
<path style="fill:none;stroke-width:1.2;stroke-linecap:butt;stroke-linejoin:miter;stroke:rgb(0%,0%,0%);stroke-opacity:1;stroke-miterlimit:10;" d="M 179.171875 131.488281 L 170.628906 120.855469 "/>
<path style="fill:none;stroke-width:1.2;stroke-linecap:butt;stroke-linejoin:miter;stroke:rgb(100%,0%,0%);stroke-opacity:1;stroke-miterlimit:10;" d="M 170.628906 120.855469 L 162.089844 110.222656 "/>
<path style="fill:none;stroke-width:1.2;stroke-linecap:butt;stroke-linejoin:miter;stroke:rgb(0%,0%,0%);stroke-opacity:1;stroke-miterlimit:10;" d="M 174.167969 135.507812 L 165.628906 124.875 "/>
<path style="fill:none;stroke-width:1.2;stroke-linecap:butt;stroke-linejoin:miter;stroke:rgb(100%,0%,0%);stroke-opacity:1;stroke-miterlimit:10;" d="M 165.628906 124.875 L 157.085938 114.242188 "/>
<path style="fill:none;stroke-width:1.2;stroke-linecap:butt;stroke-linejoin:miter;stroke:rgb(0%,0%,0%);stroke-opacity:1;stroke-miterlimit:10;" d="M 176.671875 133.496094 L 203.625 129.332031 "/>
<path style=" stroke:none;fill-rule:nonzero;fill:rgb(100%,100%,100%);fill-opacity:1;" d="M 150.585938 105.734375 L 159.585938 105.734375 L 159.585938 118.734375 L 150.585938 118.734375 Z M 150.585938 105.734375 "/>
<g style="fill:rgb(100%,0%,0%);fill-opacity:1;">
  <use xlink:href="#glyph0-2" x="150.585938" y="115.635742"/>
</g>
<path style="fill:none;stroke-width:1.2;stroke-linecap:butt;stroke-linejoin:miter;stroke:rgb(0%,0%,0%);stroke-opacity:1;stroke-miterlimit:10;" d="M 203.625 129.332031 L 220.710938 150.597656 "/>
<path style="fill:none;stroke-width:1.2;stroke-linecap:butt;stroke-linejoin:miter;stroke:rgb(0%,0%,0%);stroke-opacity:1;stroke-miterlimit:10;" d="M 210.339844 127.441406 L 224.003906 144.449219 "/>
<path style="fill:none;stroke-width:1.2;stroke-linecap:butt;stroke-linejoin:miter;stroke:rgb(0%,0%,0%);stroke-opacity:1;stroke-miterlimit:10;" d="M 213.5 103.90625 L 203.625 129.332031 "/>
<path style="fill:none;stroke-width:1.2;stroke-linecap:butt;stroke-linejoin:miter;stroke:rgb(0%,0%,0%);stroke-opacity:1;stroke-miterlimit:10;" d="M 220.710938 150.597656 L 247.667969 146.433594 "/>
<path style="fill:none;stroke-width:1.2;stroke-linecap:butt;stroke-linejoin:miter;stroke:rgb(0%,0%,0%);stroke-opacity:1;stroke-miterlimit:10;" d="M 247.667969 146.433594 L 257.539062 121.007812 "/>
<path style="fill:none;stroke-width:1.2;stroke-linecap:butt;stroke-linejoin:miter;stroke:rgb(0%,0%,0%);stroke-opacity:1;stroke-miterlimit:10;" d="M 242.671875 141.566406 L 250.570312 121.226562 "/>
<path style="fill:none;stroke-width:1.2;stroke-linecap:butt;stroke-linejoin:miter;stroke:rgb(0%,0%,0%);stroke-opacity:1;stroke-miterlimit:10;" d="M 247.667969 146.433594 L 256.207031 157.066406 "/>
<path style="fill:none;stroke-width:1.2;stroke-linecap:butt;stroke-linejoin:miter;stroke:rgb(20%,80%,80%);stroke-opacity:1;stroke-miterlimit:10;" d="M 256.207031 157.066406 L 264.75 167.695312 "/>
<path style="fill:none;stroke-width:1.2;stroke-linecap:butt;stroke-linejoin:miter;stroke:rgb(0%,0%,0%);stroke-opacity:1;stroke-miterlimit:10;" d="M 257.539062 121.007812 L 240.457031 99.742188 "/>
<path style="fill:none;stroke-width:1.2;stroke-linecap:butt;stroke-linejoin:miter;stroke:rgb(0%,0%,0%);stroke-opacity:1;stroke-miterlimit:10;" d="M 240.457031 99.742188 L 213.5 103.90625 "/>
<path style="fill:none;stroke-width:1.2;stroke-linecap:butt;stroke-linejoin:miter;stroke:rgb(0%,0%,0%);stroke-opacity:1;stroke-miterlimit:10;" d="M 238.738281 106.503906 L 217.175781 109.832031 "/>
<path style=" stroke:none;fill-rule:nonzero;fill:rgb(100%,100%,100%);fill-opacity:1;" d="M 261.75 161.195312 L 268.75 161.195312 L 268.75 174.195312 L 261.75 174.195312 Z M 261.75 161.195312 "/>
<g style="fill:rgb(20%,80%,80%);fill-opacity:1;">
  <use xlink:href="#glyph0-3" x="261.75" y="171.09668"/>
</g>
</g>
</svg>

<svg xmlns="http://www.w3.org/2000/svg" xmlns:xlink="http://www.w3.org/1999/xlink" width="300pt" height="300pt" viewBox="0 0 300 300"><defs><symbol overflow="visible"><path d="M.547 1.938V-7.75h5.5v9.688zm.625-.61h4.266v-8.47H1.171zm0 0"/></symbol><symbol overflow="visible" id="a"><path d="M1.078-8.016h1.47l3.546 6.704v-6.704h1.062V0H5.688L2.124-6.703V0H1.078zm0 0"/></symbol><symbol overflow="visible" id="b"><path d="M4.328-7.28c-.78 0-1.406.296-1.875.89-.46.585-.687 1.382-.687 2.39 0 1.012.226 1.813.687 2.406.47.586 1.094.875 1.875.875.79 0 1.414-.288 1.875-.874.457-.593.688-1.394.688-2.406 0-1.008-.23-1.805-.687-2.39-.46-.594-1.086-.89-1.875-.89zm0-.892c1.125 0 2.024.383 2.703 1.14C7.708-6.28 8.048-5.27 8.048-4c0 1.262-.34 2.273-1.016 3.03C6.353-.22 5.454.157 4.33.157S2.3-.22 1.625-.97c-.668-.75-1-1.757-1-3.03 0-1.27.332-2.28 1-3.03.676-.76 1.578-1.142 2.703-1.142zm0 0"/></symbol><symbol overflow="visible" id="c"><path d="M1.078-8.016h4.61v.907H2.171v2.36h3.172v.922H2.172V0H1.078zm0 0"/></symbol></defs><g><path fill="#fff" d="M0 0h300v300H0z"/><path d="M174.008 205.613l-26.957 4.164M183.883 180.188l-9.875 25.425" stroke-width="1.2" stroke="#000" stroke-miterlimit="10" fill="none"/><path d="M129.97 188.512m1.444 2.63l.813-.654m.628 3.285l1.625-1.308m-.18 3.937l2.438-1.96m-.992 4.59l3.25-2.614m-1.81 5.242l4.068-3.265m-2.62 5.894l4.874-3.92m-3.434 6.548l5.692-4.57m-4.246 7.203l6.503-5.226m-5.058 7.856l7.316-5.88m-6.98 6.49l7.505-6.028" stroke="#000" stroke-miterlimit="10" fill="none"/><path d="M129.97 188.512l-12.478 24.254M129.97 188.512l9.87-25.426M110.754 169.152l19.215 19.36M117.492 212.766l-26.922-4.368M90.57 208.398l-2.082-13.48" stroke-width="1.2" stroke="#000" stroke-miterlimit="10" fill="none"/><path d="M88.488 194.918l-2.082-13.477M86.406 181.44l12.176-6.143" stroke-width="1.2" stroke="#00f" stroke-miterlimit="10" fill="none"/><path d="M98.582 175.297l12.172-6.145" stroke-width="1.2" stroke="#000" stroke-miterlimit="10" fill="none"/><path d="M86.406 181.44l-12.13-6.237" stroke-width="1.2" stroke="#00f" stroke-miterlimit="10" fill="none"/><path d="M74.277 175.203l-12.13-6.238" stroke-width="1.2" stroke="#000" stroke-miterlimit="10" fill="none"/><path d="M82.406 174.94h8v13h-8zm0 0" fill="#fff"/><use xlink:href="#a" x="82.406" y="184.843" fill="#00f"/><path d="M62.148 168.965l-1.32-27.246M60.828 141.72l22.934-14.767M59.645 134.848l18.347-11.813M36.574 129.242l24.254 12.477M83.762 126.953L82.437 99.71M82.438 99.71L58.183 87.235M77.078 104.168l-19.406-9.98M58.184 87.234L35.25 102M35.25 102l1.324 27.242M41.793 104.414l1.06 21.793M139.84 163.086l13.48-2.082" stroke-width="1.2" stroke="#000" stroke-miterlimit="10" fill="none"/><path d="M153.32 161.004l13.477-2.082M166.797 158.922l8.543 10.633" stroke-width="1.2" stroke="#00f" stroke-miterlimit="10" fill="none"/><path d="M175.34 169.555l8.543 10.632" stroke-width="1.2" stroke="#000" stroke-miterlimit="10" fill="none"/><path d="M166.797 158.922l4.937-12.71" stroke-width="1.2" stroke="#00f" stroke-miterlimit="10" fill="none"/><path d="M171.734 146.21l4.938-12.714" stroke-width="1.2" stroke="#000" stroke-miterlimit="10" fill="none"/><path d="M162.797 152.422h8v13h-8zm0 0" fill="#fff"/><use xlink:href="#a" x="162.797" y="162.323" fill="#00f"/><path d="M179.172 131.488l-8.543-10.633" stroke-width="1.2" stroke="#000" stroke-miterlimit="10" fill="none"/><path d="M170.63 120.855l-8.54-10.632" stroke-width="1.2" stroke="#f00" stroke-miterlimit="10" fill="none"/><path d="M174.168 135.508l-8.54-10.633" stroke-width="1.2" stroke="#000" stroke-miterlimit="10" fill="none"/><path d="M165.63 124.875l-8.544-10.633" stroke-width="1.2" stroke="#f00" stroke-miterlimit="10" fill="none"/><path d="M176.672 133.496l26.953-4.164" stroke-width="1.2" stroke="#000" stroke-miterlimit="10" fill="none"/><path d="M150.586 105.734h9v13h-9zm0 0" fill="#fff"/><use xlink:href="#b" x="150.586" y="115.636" fill="#f00"/><path d="M203.625 129.332l17.086 21.266M210.34 127.44l13.664 17.01M213.5 103.906l-9.875 25.426M220.71 150.598l26.958-4.164M247.668 146.434l9.87-25.426M242.672 141.566l7.898-20.34M247.668 146.434l8.54 10.632" stroke-width="1.2" stroke="#000" stroke-miterlimit="10" fill="none"/><path d="M256.207 157.066l8.543 10.63" stroke-width="1.2" stroke="#3cc" stroke-miterlimit="10" fill="none"/><path d="M257.54 121.008l-17.083-21.266M240.457 99.742l-26.957 4.164M238.738 106.504l-21.562 3.328" stroke-width="1.2" stroke="#000" stroke-miterlimit="10" fill="none"/><path d="M261.75 161.195h7v13h-7zm0 0" fill="#fff"/><use xlink:href="#c" x="261.75" y="171.097" fill="#3cc"/></g></svg>
